X: 11041
T: the BOBBERS OF BRECHIN
%R: reel
B: "Edinburgh Repository of Music" v.1 p.104 #1
F: http://digital.nls.uk/special-collections-of-printed-music/pageturner.cfm?id=87776133
Z: 2015 John Chambers <jc:trillian.mit.edu>
M: C|
L: 1/8
K: Gm
g |\
dg~g^f g2d=f | cdfg dfcf | dgg^f Tg2dg | fdcA {A}G2GB |
Gg g^f Tg2d=f | c>dfg afcf | d^fga bag=f | dfcA {A}G2G |]
d |!f!\
BGdG BGd=e | f>dc>f AFcA | BGdG BGdg | fdcA {A}G2Gd |
BGdG BGd=e | Tf>dcf AFcA | .G.A.B.c .d.=e.f.g | f>dc>A {A}G2G |]
